lib/brands/icons/webpack.svg

<svg xmlns="http://www.w3.org/2000/svg" fill="none" aria-hidden="true" viewBox="0 0 48 48"><g id="webpack-Icon"><g id="Group"><path id="Vector" fill="white" d="M23.9998 6L39.9077 14.9985V33.0015L23.9998 42L8.0918 33.0015V14.9985L23.9998 6Z"/><path id="Vector_2" fill="#8ED6FB" d="M37.0679 32.3771L24.5277 39.4787V33.9559L32.3436 29.6518L37.0679 32.3771ZM37.9264 31.6028V16.7633L33.3401 19.4107V28.9554L37.9264 31.6028ZM10.8828 32.3771L23.4231 39.4727V33.9499L15.6072 29.6518L10.8828 32.3771ZM10.0244 31.6028V16.7633L14.6107 19.4107V28.9554L10.0244 31.6028ZM10.5587 15.8029L23.4231 8.52722V13.8699L15.181 18.4022L15.115 18.4382L10.5587 15.8029ZM37.3861 15.8029L24.5277 8.52722V13.8699L32.7638 18.4082L32.8298 18.4442L37.3861 15.8029Z"/><path id="Vector_3" fill="#1C78C0" d="M23.4237 32.6954L15.7158 28.4513V20.0531L23.4237 24.5013V32.6954ZM24.5282 32.6954L32.2361 28.4573V20.0531L24.5282 24.5013V32.6954ZM16.2321 19.0806L23.976 14.8245L31.7138 19.0806L23.976 23.5468L16.2321 19.0806Z"/></g></g></svg>

<svg xmlns="http://www.w3.org/2000/svg" fill="none" aria-hidden="true" viewBox="0 0 48 48"><path fill="#fff" d="m24 6 15.908 8.998v18.004L24 42 8.092 33.002V14.997L24 6Z"/><path fill="#8ED6FB" d="m37.068 32.377-12.54 7.102v-5.523l7.816-4.304 4.724 2.725Zm.858-.774v-14.84l-4.586 2.648v9.544l4.586 2.648Zm-27.043.774 12.54 7.096V33.95l-7.816-4.298-4.724 2.725Zm-.859-.774v-14.84l4.587 2.648v9.544l-4.587 2.648Zm.535-15.8 12.864-7.276v5.343l-8.242 4.532-.066.036-4.556-2.635Zm26.827 0L24.528 8.527v5.343l8.236 4.538.066.036 4.556-2.641Z"/><path fill="#1C78C0" d="m23.424 32.695-7.708-4.244v-8.398l7.708 4.448v8.194Zm1.104 0 7.708-4.238v-8.404l-7.708 4.448v8.194Zm-8.296-13.614 7.744-4.256 7.738 4.256-7.738 4.466-7.744-4.466Z"/></svg>
